Sources/FrostedUI/Resources/Icons.xcassets/illuminatiFilled32.imageset/illuminati-filled-32.svg

<svg width="32" height="32" viewBox="0 0 32 32" fill="none" xmlns="http://www.w3.org/2000/svg" data-fui-icon="true">
  <path
    d="M14.0653 3.09033C14.9371 1.62183 17.0626 1.62184 17.9344 3.09033L31.2997 25.6021C32.1892 27.1016 31.1087 29 29.3651 29.0005H2.63464C0.890682 29.0003 -0.189894 27.1018 0.700073 25.6021L14.0653 3.09033ZM15.9989 11.0005C18.6223 11.0005 20.7489 13.1271 20.7489 15.7505C20.7487 18.3737 18.6221 20.5005 15.9989 20.5005C13.3759 20.5003 11.2491 18.3735 11.2489 15.7505C11.2489 13.1279 13.3747 11.0018 15.9969 11.0005C12.9019 11.0014 10.7031 12.3854 9.23718 13.8979C7.96474 15.2109 7.23155 16.6314 6.90417 17.3696L6.78796 17.6421C6.656 17.9673 6.6587 18.3241 6.79675 18.6479C7.27339 19.7656 9.82406 25.0003 15.9999 25.0005C22.1765 25.0001 24.728 19.7644 25.204 18.6479C25.342 18.3243 25.3445 17.9672 25.2128 17.6421C24.968 17.0396 24.2174 15.3973 22.7635 13.897C21.2972 12.3841 19.0961 11.0007 15.9999 11.0005H15.9989ZM15.9989 12.5005C14.2042 12.5007 12.7489 13.9557 12.7489 15.7505C12.7491 17.5451 14.2043 19.0003 15.9989 19.0005C17.7937 19.0005 19.2487 17.5452 19.2489 15.7505C19.2489 13.9556 17.7938 12.5005 15.9989 12.5005Z"
    fill="currentColor"
  />
</svg>

<svg xmlns="http://www.w3.org/2000/svg" width="32" height="32" fill="none" data-fui-icon="true" viewBox="0 0 32 32"><path fill="currentColor" d="M14.065 3.09c.872-1.468 2.998-1.468 3.87 0L31.3 25.602c.89 1.5-.191 3.398-1.935 3.398H2.635C.89 29-.19 27.103.7 25.603zM16 11a4.75 4.75 0 1 1 .004 9.5 4.75 4.75 0 0 1-.006-9.5c-3.095.001-5.294 1.385-6.76 2.898a12.3 12.3 0 0 0-2.333 3.472l-.116.272a1.3 1.3 0 0 0 .009 1.006C7.273 19.766 9.824 25 16 25c6.177 0 8.728-5.236 9.204-6.352.138-.324.14-.68.009-1.006a12.2 12.2 0 0 0-2.45-3.745c-1.466-1.513-3.667-2.896-6.763-2.896zm0 1.5a3.25 3.25 0 1 0 0 6.501 3.25 3.25 0 0 0 0-6.5"/></svg>
